X: 1
%T: Double Dutch
%T: 4x32 4C (Ruth Taylor, 25 Years at Westminster)
T: Mrs. McKenzie of Applecross
C: Joseph Lowe
S: from the internet
R: Strathspey
M: 4/4
L: 1/16
K: A
|: a2 |\
"A"e3A dcBA F3A E3A | "D"d3B dcBA "E"GB3 Ba3 |\
"A"ec3 c3A "D"F3A "A"E3A | "D"F3A "E"d3B "A"cA3 A2 :|
"A"a3e dcBA "E"ce3 e3g | "A"a3e dcBA "E"bB3 B3g |\
"A"a3e dcBA ce3 e3c | "E"d3c Be3 "A"cA3 A3g |
"A"a3e dcBA "E"ce3 e3g | "A"a3e c3a "E"bB3 B3g |\
"A"((3a2g2a2) ((3e2f2g2) ((3a2e2d2) ((3c2B2A2) | "E"((3B2b2a2) ((3g2f2g2) "A"aA3 A2 |]
